assets/images/icons/src/intersex.svg

<?xml version="1.0" encoding="utf-8"?>
<!-- Generated by IcoMoon.io -->
<!DOCTYPE svg PUBLIC "-//W3C//DTD SVG 1.1//EN" "http://www.w3.org/Graphics/SVG/1.1/DTD/svg11.dtd">
<svg version="1.1" xmlns="http://www.w3.org/2000/svg" xmlns:xlink="http://www.w3.org/1999/xlink" width="11" height="14" viewBox="0 0 11 14">
<path fill="#444444" d="M8 0.25q0-0.109 0.070-0.18t0.18-0.070h2.25q0.203 0 0.352 0.148t0.148 0.352v2.25q0 0.109-0.070 0.18t-0.18 0.070h-0.5q-0.109 0-0.18-0.070t-0.070-0.18v-1.047l-1.984 1.992q0.984 1.234 0.984 2.805 0 1.727-1.152 3.004t-2.848 1.465v1.031h0.75q0.109 0 0.18 0.070t0.070 0.18v0.5q0 0.109-0.070 0.18t-0.18 0.070h-0.75v0.75q0 0.109-0.070 0.18t-0.18 0.070h-0.5q-0.109 0-0.18-0.070t-0.070-0.18v-0.75h-0.75q-0.109 0-0.18-0.070t-0.070-0.18v-0.5q0-0.109 0.070-0.18t0.18-0.070h0.75v-1.031q-1.164-0.125-2.113-0.805t-1.457-1.746-0.414-2.277q0.125-1.594 1.25-2.762t2.711-1.348q0.922-0.109 1.781 0.148t1.547 0.805l1.992-1.984h-1.047q-0.109 0-0.18-0.070t-0.070-0.18v-0.5zM4.5 10q1.445 0 2.473-1.027t1.027-2.473-1.027-2.473-2.473-1.027-2.473 1.027-1.027 2.473 1.027 2.473 2.473 1.027z"></path>
</svg>

<svg xmlns="http://www.w3.org/2000/svg" width="11" height="14" viewBox="0 0 11 14"><path fill="#444" d="M8 .25q0-.109.07-.18T8.25 0h2.25q.203 0 .352.148T11 .5v2.25q0 .109-.07.18t-.18.07h-.5q-.109 0-.18-.07T10 2.75V1.703L8.016 3.695Q9 4.929 9 6.5q0 1.727-1.152 3.004T5 10.969V12h.75q.109 0 .18.07t.07.18v.5q0 .109-.07.18t-.18.07H5v.75q0 .109-.07.18t-.18.07h-.5q-.109 0-.18-.07T4 13.75V13h-.75q-.109 0-.18-.07T3 12.75v-.5q0-.109.07-.18t.18-.07H4v-1.031q-1.164-.125-2.113-.805T.43 8.418.016 6.141q.125-1.594 1.25-2.762t2.711-1.348q.922-.109 1.781.148t1.547.805L9.297 1H8.25q-.109 0-.18-.07T8 .75v-.5zM4.5 10q1.445 0 2.473-1.027T8 6.5 6.973 4.027 4.5 3 2.027 4.027 1 6.5t1.027 2.473T4.5 10z"/></svg>
